X: 39713
T: Terry Teahan's
R: polka
M: 2/4
K: Dmajor
|:de/d/ BA|B/c/d ef|ab/a/ ge|ed BA|
de/d/ BA|B/c/d ef|ab/a/ ge|1 ed de:|2 ed df||
a2 a^g/a/|ba fd|e/g/a ef|ed BA|
a2 a^g/a/|ba fd|e/g/a ef|ed df|
a2 a^g/a/|ba fd|e/g/a ef|ed BA|
de/d/ BA|B/c/d ef|ab/a/ ge|ed de||

